X:372
T:The high road to Linton
T:Jenny's gone to Linton
C:Parts C and D by Bobby Macleod
R:Reel
O:Scotland
S:?
B:?
Z:Transcription, chords:Mike Long
M:C|
L:1/8
K:A
"A"ceef a2 ae|"D"f2fe a2ae|"A"ceef a2 ae|"D"faec "E"B2A2:|\
|:"A"cee=g "D"fddf|
"A"ecce "E"fBBA|"A"cee=g "D"fddf|"A"ecac "E"B2A2:|\
|:"A"a2a2 efa2|"D"efae faef|"A"a2a2 efae|
"D"faec "E"B2A2:|\
|:"A"~c2ec "D"defd|"A"~c2ec "E"BcdB|"A"~c2ec "D"defg|"E"afec B2A2:|
